Catalina-dark/status/16/battery-80.svg

<svg width="24" height="24" enable-background="new" version="1.1" xmlns="http://www.w3.org/2000/svg">
<path d="m2 6c-2 0-2 0-2 2v8c0 2 0 2 2 2h16.998c2 0 2 0 2-2v-8c0-2 0-2-2-2zm0 1h16.998c1 0 1 0 1 1v8c0 1 0 1-1 1h-16.998c-1 0-1 0-1-1v-8c0-1 0-1 1-1zm0 1v8h15v-8zm20 2v4c2 0 2-4 0-4z" clip-rule="evenodd" fill="#f5f5f5" fill-rule="evenodd" stroke-linejoin="round" stroke-miterlimit="1.4142" stroke-width="1.1667"/>
</svg>

<?xml version="1.0" encoding="UTF-8" standalone="no"?>
<!-- Created with Inkscape (http://www.inkscape.org/) -->

<svg
   xmlns:dc="http://purl.org/dc/elements/1.1/"
   xmlns:cc="http://creativecommons.org/ns#"
   xmlns:rdf="http://www.w3.org/1999/02/22-rdf-syntax-ns#"
   xmlns:svg="http://www.w3.org/2000/svg"
   xmlns="http://www.w3.org/2000/svg"
   xmlns:xlink="http://www.w3.org/1999/xlink"
   xmlns:sodipodi="http://sodipodi.sourceforge.net/DTD/sodipodi-0.dtd"
   xmlns:inkscape="http://www.inkscape.org/namespaces/inkscape"
   id="svg7384"
   style="enable-background:new"
   height="24"
   width="24"
   version="1.1"
   inkscape:version="0.92.4 5da689c313, 2019-01-14"
   sodipodi:docname="battery-80.svg">
  <sodipodi:namedview
     pagecolor="#a1a1a1"
     bordercolor="#666666"
     borderopacity="1"
     objecttolerance="10"
     gridtolerance="10"
     guidetolerance="10"
     inkscape:pageopacity="0"
     inkscape:pageshadow="2"
     inkscape:window-width="1920"
     inkscape:window-height="1027"
     id="namedview11"
     showgrid="true"
     inkscape:zoom="32"
     inkscape:cx="9.369003"
     inkscape:cy="8.3143786"
     inkscape:window-x="0"
     inkscape:window-y="30"
     inkscape:window-maximized="1"
     inkscape:current-layer="svg7384">
    <inkscape:grid
       type="xygrid"
       id="grid843" />
  </sodipodi:namedview>
  <metadata
     id="metadata90">
    <rdf:RDF>
      <cc:Work
         rdf:about="">
        <dc:format>image/svg+xml</dc:format>
        <dc:type
           rdf:resource="http://purl.org/dc/dcmitype/StillImage" />
        <dc:title>Paper Symbolic Icon Theme</dc:title>
      </cc:Work>
    </rdf:RDF>
  </metadata>
  <title
     id="title8473">Paper Symbolic Icon Theme</title>
  <defs
     id="defs7386">
    <filter
       id="filter7554"
       style="color-interpolation-filters:sRGB">
      <feBlend
         id="feBlend7556"
         in2="BackgroundImage"
         mode="darken" />
    </filter>
    <filter
       style="color-interpolation-filters:sRGB"
       id="filter7554-5">
      <feBlend
         mode="darken"
         in2="BackgroundImage"
         id="feBlend7556-4" />
    </filter>
    <filter
       id="filter7554-6"
       style="color-interpolation-filters:sRGB">
      <feBlend
         mode="darken"
         in2="BackgroundImage"
         id="feBlend7556-6" />
    </filter>
    <linearGradient
       x1="8.9254236"
       y1="5.9997859"
       x2="8.9254236"
       y2="19"
       id="linearGradient2868"
       xlink:href="#linearGradient3678"
       gradientUnits="userSpaceOnUse"
       gradientTransform="translate(-1,-2)" />
    <linearGradient
       id="linearGradient3678">
      <stop
         id="stop3680"
         style="stop-color:#ffffff;stop-opacity:1"
         offset="0" />
      <stop
         id="stop3682"
         style="stop-color:#e6e6e6;stop-opacity:1"
         offset="1" />
    </linearGradient>
    <linearGradient
       x1="9"
       y1="3"
       x2="9"
       y2="21"
       id="linearGradient2393"
       xlink:href="#linearGradient3678"
       gradientUnits="userSpaceOnUse"
       gradientTransform="translate(-2,-1)" />
    <linearGradient
       gradientTransform="translate(-1.0001235,-5)"
       gradientUnits="userSpaceOnUse"
       xlink:href="#linearGradient3587-6-5-3"
       id="linearGradient2398"
       y2="21"
       x2="14"
       y1="3"
       x1="14" />
    <linearGradient
       id="linearGradient3587-6-5-3">
      <stop
         offset="0"
         style="stop-color:#000000;stop-opacity:1"
         id="stop3589-9-2-0" />
      <stop
         offset="1"
         style="stop-color:#363636;stop-opacity:1"
         id="stop3591-7-4-7" />
    </linearGradient>
    <linearGradient
       gradientTransform="translate(-52.096803,-11.363826)"
       gradientUnits="userSpaceOnUse"
       xlink:href="#linearGradient3587-6-5-3"
       id="linearGradient2395"
       y2="27.363825"
       x2="66.09668"
       y1="9.3638258"
       x1="66.09668" />
    <linearGradient
       gradientUnits="userSpaceOnUse"
       xlink:href="#linearGradient3587-6-5-3"
       id="linearGradient7390"
       y2="13.496136"
       x2="4.9554448"
       y1="2.6841583"
       x1="4.9554448" />
    <linearGradient
       gradientUnits="userSpaceOnUse"
       xlink:href="#linearGradient3587-6-5-3"
       id="linearGradient7392"
       y2="11.649005"
       x2="7.9109159"
       y1="4.5762329"
       x1="7.9109159" />
    <linearGradient
       gradientUnits="userSpaceOnUse"
       xlink:href="#linearGradient3587-6-5-3"
       id="linearGradient7394"
       y2="13.317288"
       x2="10.186814"
       y1="2.7742527"
       x1="10.186814" />
    <linearGradient
       gradientUnits="userSpaceOnUse"
       xlink:href="#linearGradient3587-6-5-3"
       id="linearGradient7396"
       y2="15.183488"
       x2="13.917011"
       y1="0.88217813"
       x1="13.917011" />
    <linearGradient
       id="linearGradient5263">
      <stop
         offset="0"
         style="stop-color:#a0d5ff;stop-opacity:1"
         id="stop5265" />
      <stop
         offset="1"
         style="stop-color:#a0d5ff;stop-opacity:1"
         id="stop5267" />
    </linearGradient>
    <filter
       style="color-interpolation-filters:sRGB"
       id="filter7554-7">
      <feBlend
         mode="darken"
         in2="BackgroundImage"
         id="feBlend7556-0" />
    </filter>
    <filter
       style="color-interpolation-filters:sRGB"
       id="filter7554-3">
      <feBlend
         mode="darken"
         in2="BackgroundImage"
         id="feBlend7556-3" />
    </filter>
    <filter
       id="filter7554-5-1"
       style="color-interpolation-filters:sRGB">
      <feBlend
         id="feBlend7556-4-8"
         in2="BackgroundImage"
         mode="darken" />
    </filter>
    <filter
       style="color-interpolation-filters:sRGB"
       id="filter7554-6-8">
      <feBlend
         id="feBlend7556-6-8"
         in2="BackgroundImage"
         mode="darken" />
    </filter>
    <filter
       id="filter7554-7-6"
       style="color-interpolation-filters:sRGB">
      <feBlend
         id="feBlend7556-0-4"
         in2="BackgroundImage"
         mode="darken" />
    </filter>
    <filter
       id="filter7554-52"
       style="color-interpolation-filters:sRGB">
      <feBlend
         id="feBlend7556-07"
         in2="BackgroundImage"
         mode="darken" />
    </filter>
    <filter
       style="color-interpolation-filters:sRGB"
       id="filter7554-5-8">
      <feBlend
         mode="darken"
         in2="BackgroundImage"
         id="feBlend7556-4-7" />
    </filter>
    <filter
       id="filter7554-6-6"
       style="color-interpolation-filters:sRGB">
      <feBlend
         mode="darken"
         in2="BackgroundImage"
         id="feBlend7556-6-9" />
    </filter>
  </defs>
  <path
     style="clip-rule:evenodd;fill:#f5f5f5;fill-opacity:1;fill-rule:evenodd;stroke-width:1.16666663;stroke-linejoin:round;stroke-miterlimit:1.41420996"
     d="M 2,6 C 0,6 0,6 0,8 v 8 c 0,2 0,2 2,2 h 16.998047 c 2,0 2,0 2,-2 V 8 c 0,-2 0,-2 -2,-2 z m 0,1 h 16.998047 c 1,0 1,0 1,1 v 8 c 0,1 0,1 -1,1 H 2 C 1,17 1,17 1,16 V 8 C 1,7 1,7 2,7 Z m 0,1 v 8 H 17 V 8 Z m 20,2 v 4 c 2,0 2,-4 0,-4 z"
     id="path2-7"
     inkscape:connector-curvature="0"
     sodipodi:nodetypes="sssssssssssssssssscccccccc" />
</svg>
